assets/icons/qvision/subway.svg

<svg width="24" height="24" viewBox="0 0 24 24" fill="none" xmlns="http://www.w3.org/2000/svg">
<g clip-path="url(#clip0_147_5636)">
<path d="M15.5 17C16.0523 17 16.5 16.5523 16.5 16C16.5 15.4477 16.0523 15 15.5 15C14.9477 15 14.5 15.4477 14.5 16C14.5 16.5523 14.9477 17 15.5 17Z" fill="#323232"/>
<path d="M8.5 17C9.05228 17 9.5 16.5523 9.5 16C9.5 15.4477 9.05228 15 8.5 15C7.94772 15 7.5 15.4477 7.5 16C7.5 16.5523 7.94772 17 8.5 17Z" fill="#323232"/>
<path d="M7.01 9H17.01V14H7.01V9ZM17.8 2.8C16 2.09 13.86 2 12 2C10.14 2 8 2.09 6.2 2.8C3.53 3.84 2 6.05 2 8.86V22H22V8.86C22 6.05 20.47 3.84 17.8 2.8ZM18 15.88C18 17.33 16.82 18.5 15.37 18.5L16.5 19.62V20H15L13.5 18.5H10.67L9.17 20H7.5V19.62L8.62 18.5C7.18 18.5 6 17.32 6 15.88V9C6 6.37 9 6 12 6C15.32 6 18 6.38 18 9V15.88Z" fill="#323232"/>
</g>
<defs>
<clipPath id="clip0_147_5636">
<rect width="24" height="24" fill="white"/>
</clipPath>
</defs>
</svg>

<svg xmlns="http://www.w3.org/2000/svg" height="24" viewBox="0 0 24 24" width="24"><path d="M0 0v24h24V0H0zm22 22H2V8.86C2 6.05 3.53 3.84 6.2 2.8 8 2.09 10.14 2 12 2c1.86 0 4 .09 5.8.8C20.47 3.84 22 6.05 22 8.86V22z" fill="none"/><circle cx="15.5" cy="16" r="1"/><circle cx="8.5" cy="16" r="1"/><path d="M7.01 9h10v5h-10zM17.8 2.8C16 2.09 13.86 2 12 2c-1.86 0-4 .09-5.8.8C3.53 3.84 2 6.05 2 8.86V22h20V8.86c0-2.81-1.53-5.02-4.2-6.06zm.2 13.08c0 1.45-1.18 2.62-2.63 2.62l1.13 1.12V20H15l-1.5-1.5h-2.83L9.17 20H7.5v-.38l1.12-1.12C7.18 18.5 6 17.32 6 15.88V9c0-2.63 3-3 6-3 3.32 0 6 .38 6 3v6.88z"/></svg>
